X:1
T:Title
%%score [ ( 1 2 ) ( 3 4 ) ] { ( 5 6 ) | ( 7 8 ) }
L:1/8
Q:1/4=120
M:4/4
K:A
V:1 treble nm="Midi_74"
V:2 treble 
V:3 bass nm="Midi_74"
V:4 bass 
V:5 treble nm="Org."
V:6 treble 
V:7 bass 
V:8 bass 
V:1
 (A6 c2) | e4 (c2 A2) | E8 || G8 | A4 (B2 c2) | (d2 c2) (B2 A2) |{A} G8 || (E6 G2) | B4 (G2 E2) | %9
 A8 || (f6 e2) | (d2 c2) (B2 A2) |"^John Camidge\n(1790-1859)" c4 B4 | A8 |] %14
V:2
 (A,6 C2) | E4 (C2 A,2) | E8 || E8 | E4 E4 | (F2 E2) (D2 C2) |{C} B,8 || (E6 G2) | B4 (G2 E2) | %9
 A8 || A8 | A4 F4 | E4 D4 | C8 |] %14
V:3
 (A,6 C2) | E4 (C2 A,2) | E,8 || B,8 | A,4 (G,2 A,2) | A,4 F,4 | E,8 || (E,6 G,2) | B,4 (G,2 E,2) | %9
 A,8 || A,8 | A,4 A,4 | A,4 G,4 | A,8 |] %14
V:4
 (A,6 C2) | E4 (C2 A,2) | E,8 || D,8 | C,4 (B,,2 A,,2) | D,4 (D,2 ^D,2) | E,8 || (E,6 G,2) | %8
 B,4 (G,2 E,2) | A,8 || (D,6 C,2) | (F,2 E,2) (D,2 ^D,2) | E,4 E,4 | A,,8 |] %14
V:5
 A6 c2 | e4 c2 A2 | E8 || G8 | A4 B2 c2 | d2 c2 B2 A2 |{[CA]} G8 || E6 G2 | B4 G2 E2 | A8 || %10
 f6 e2 | d2 c2 B2 A2 | c4 B4 | [EA]8 |] %14
V:6
 x8 | x8 | x8 || E8 | E4 [DEG]2 [CEA]2 | F2 E2 D2 C2 | B,8 || x8 | x8 | x8 || [FA]6 [EA]2 | A4 F4 | %12
 [EA]4 [DEG]4 | C8 |] %14
V:7
 x8 | x8 | x8 || x8 | x8 |"^8 vi" x8 | x8 || x8 | x8 | x8 || x8 |"^8 vi" D2 E2 x4 | x8 | x8 |] %14
V:8
 [A,,A,]6 [C,C]2 | [E,E]4 [C,C]2 [A,,A,]2 | [E,,E,]8 || [D,D]8 | [C,C]4 [B,,B,]2 [A,,A,]2 | %5
 D,4 D,2 ^D,2 | E,8 || E,6 G,2 | B,4 G,2 E,2 | [A,,A,]8 || [D,D]6 [C,C]2 | F,2 E,2 D,2 ^D,2 | %12
 E,4 [E,,E,]4 | [A,,E,]8 |] %14

